!!!OTL: Das faule Gretchen
!!!ARE: Europa, Mitteleuropa, Lothringen, Gebenhausen
!!!SCT: D0028
!!!YEM: Copyright 1995, estate of Helmut Schaffrath.
**kern
*ICvox
*Ivox
*M4/8
*k[f#]
*G:
{8d
=1
8g
8b
8a
8f#
=2
8g
8e
8d}
{8d
=3
8e
8g
8f#
8a
=4
4g
8r}
{8d
=5
8g
8b
8a
8f#
=6
8g
8e
8d}
{8d
=7
8e
8g
8f#
8a
=8
4g}
{8.dd
16cc
=9
8b
8b
8b
8b
=10
8b
8dd
4dd
=11
8b
8dd
4dd}
=12
{8dd
8cc
8cc
8ee
=13
8ee
8dd
8b}
{16a
16a
=14
8b
8dd
8cc
8a
=15
4g
8r}
==
!!!AGN: Spott - Lied
!! Mehrere rhythmische Korrekturen zum 4/8 - Takt durchgefuehrt
!!    Verzierung; Inzipit = Variante
!!!ONB: ESAC (Essen Associative Code) Database: DVA
!!!AMT: simple quadruple
!!!AIN: vox
!!!EED: Helmut Schaffrath
!!!EEV: 1.0
*-
